icons/badge/shape/octagon.svg

<svg width="32" height="32" viewBox="0 0 32 32" fill="none" xmlns="http://www.w3.org/2000/svg">
<path fill-rule="evenodd" clip-rule="evenodd" d="M9.66667 2.58579C10.0417 2.21071 10.5504 2 11.0809 2H20.9191C21.4496 2 21.9583 2.21071 22.3333 2.58579L29.4142 9.66667C29.7893 10.0417 30 10.5504 30 11.0809V20.9191C30 21.4496 29.7893 21.9583 29.4142 22.3333L22.3333 29.4142C21.9583 29.7893 21.4496 30 20.9191 30H11.0809C10.5504 30 10.0417 29.7893 9.66667 29.4142L2.58579 22.3333C2.21071 21.9583 2 21.4496 2 20.9191V11.0809C2 10.5504 2.21071 10.0417 2.58579 9.66667L9.66667 2.58579ZM20.9191 4L11.0809 4L4 11.0809V20.9191L11.0809 28L20.9191 28L28 20.9191L28 11.0809L20.9191 4Z" fill="black"/>
</svg>

<svg viewBox="0 0 32 32" xmlns="http://www.w3.org/2000/svg"><path fill-rule="evenodd" d="M9.667 2.586A2 2 0 0111.08 2h9.838a2 2 0 011.414.586l7.081 7.08A2 2 0 0130 11.082v9.838a2 2 0 01-.586 1.414l-7.08 7.081a2 2 0 01-1.415.586h-9.838a2 2 0 01-1.414-.586l-7.081-7.08A2 2 0 012 20.918v-9.838a2 2 0 01.586-1.414l7.08-7.081zM20.919 4h-9.838L4 11.08v9.84L11.08 28h9.84L28 20.92v-9.84L20.92 4z"/></svg>
